src/app/components/images/Logo7.svg

<svg width="94" height="24" viewBox="0 0 94 24" fill="none" xmlns="http://www.w3.org/2000/svg">
<path d="M28.2344 7.55227H30.4844V16.6498H28.2344V7.55227ZM31.3769 13.2148C31.3769 10.9648 32.7569 9.62227 34.8869 9.62227C37.0169 9.62227 38.3969 10.9648 38.3969 13.2148C38.3969 15.4648 37.0469 16.8148 34.8869 16.8148C32.7269 16.8148 31.3769 15.5023 31.3769 13.2148ZM36.1394 13.2148C36.1394 11.9773 35.6519 11.2498 34.8869 11.2498C34.1219 11.2498 33.6419 11.9998 33.6419 13.2148C33.6419 14.4298 34.1144 15.1648 34.8869 15.1648C35.6594 15.1648 36.1394 14.4748 36.1394 13.2223V13.2148ZM39.2444 17.0923H41.4044C41.5072 17.3206 41.681 17.5097 41.8999 17.6314C42.1188 17.7529 42.3712 17.8006 42.6194 17.7673C43.4744 17.7673 43.9244 17.3023 43.9244 16.6273V15.3673H43.8794C43.7001 15.7534 43.4092 16.077 43.0443 16.2963C42.6793 16.5155 42.257 16.6204 41.8319 16.5973C40.1894 16.5973 39.1019 15.3448 39.1019 13.1923C39.1019 11.0398 40.1369 9.68227 41.8619 9.68227C42.3003 9.6651 42.7335 9.78232 43.1035 10.0182C43.4735 10.2541 43.7625 10.5975 43.9319 11.0023V9.74977H46.1819V16.5748C46.1819 18.2173 44.7344 19.2373 42.5969 19.2373C40.6094 19.2373 39.3719 18.3448 39.2444 17.0998V17.0923ZM43.9319 13.2073C43.9319 12.1123 43.4294 11.4223 42.6344 11.4223C41.8394 11.4223 41.3519 12.1048 41.3519 13.2073C41.3519 14.3098 41.8319 14.9323 42.6344 14.9323C43.4369 14.9323 43.9319 14.3248 43.9319 13.2148V13.2073ZM47.0294 13.2073C47.0294 10.9573 48.4094 9.61477 50.5394 9.61477C52.6694 9.61477 54.0569 10.9573 54.0569 13.2073C54.0569 15.4573 52.7069 16.8073 50.5394 16.8073C48.3719 16.8073 47.0294 15.5023 47.0294 13.2148V13.2073ZM51.7919 13.2073C51.7919 11.9698 51.3044 11.2423 50.5394 11.2423C49.7744 11.2423 49.3319 11.9998 49.3319 13.2223C49.3319 14.4448 49.8044 15.1723 50.5694 15.1723C51.3344 15.1723 51.7919 14.4748 51.7919 13.2223V13.2073ZM54.9119 8.11477C54.906 7.8876 54.9677 7.6638 55.0891 7.47173C55.2106 7.27965 55.3863 7.12797 55.5941 7.0359C55.8018 6.94383 56.0322 6.91552 56.2561 6.95456C56.48 6.9936 56.6872 7.09824 56.8515 7.25519C57.0159 7.41215 57.1299 7.61437 57.1792 7.83622C57.2285 8.05807 57.2108 8.28952 57.1283 8.50132C57.0459 8.71305 56.9024 8.8956 56.7161 9.02572C56.5298 9.15585 56.3091 9.22777 56.0819 9.23227C55.9313 9.24262 55.7802 9.2217 55.638 9.17085C55.4958 9.12 55.3658 9.04035 55.2559 8.93677C55.146 8.83327 55.0587 8.7081 54.9995 8.5692C54.9403 8.43037 54.9105 8.28075 54.9119 8.12977V8.11477ZM54.9119 9.76477H57.1619V16.6498H54.9119V9.76477ZM65.3294 13.2073C65.3294 15.4573 64.3319 16.7398 62.6219 16.7398C62.1834 16.7679 61.7468 16.6607 61.3713 16.4327C60.9956 16.2046 60.6992 15.8668 60.5219 15.4648H60.4769V18.8548H58.2269V9.74977H60.4769V10.9798H60.5219C60.6909 10.5711 60.9818 10.2244 61.3548 9.98692C61.7279 9.7494 62.165 9.63255 62.6069 9.65227C64.3319 9.68227 65.3594 10.9723 65.3594 13.2223L65.3294 13.2073ZM63.0794 13.2073C63.0794 12.1123 62.5769 11.4148 61.7894 11.4148C61.0019 11.4148 60.4994 12.1198 60.4919 13.2073C60.4844 14.2948 61.0019 14.9923 61.7894 14.9923C62.5769 14.9923 63.0794 14.3098 63.0794 13.2223V13.2073ZM69.1919 9.60727C71.0594 9.60727 72.1919 10.4923 72.2444 11.9098H70.1969C70.1969 11.4223 69.7919 11.1148 69.1694 11.1148C68.5469 11.1148 68.2694 11.3548 68.2694 11.7073C68.2694 12.0598 68.5169 12.1723 69.0194 12.2773L70.4594 12.5698C71.8319 12.8623 72.4169 13.4173 72.4169 14.4598C72.4169 15.8848 71.1194 16.7998 69.2069 16.7998C67.2944 16.7998 66.0419 15.8848 65.9444 14.4823H68.1119C68.1794 14.9923 68.5844 15.2923 69.2444 15.2923C69.9044 15.2923 70.2044 15.0748 70.2044 14.7148C70.2044 14.3548 69.9944 14.2798 69.4544 14.1673L68.1569 13.8898C66.8144 13.6123 66.1094 12.8998 66.1094 11.8498C66.1244 10.4998 67.3319 9.62227 69.1919 9.62227V9.60727ZM79.9244 16.6348H77.7569V15.3523H77.7119C77.5926 15.7828 77.3301 16.1597 76.9671 16.4203C76.6041 16.6809 76.1631 16.8095 75.7169 16.7848C75.375 16.8042 75.033 16.75 74.7139 16.6259C74.3948 16.5018 74.106 16.3107 73.8671 16.0654C73.6283 15.8201 73.4448 15.5263 73.3292 15.2041C73.2135 14.8818 73.1684 14.5384 73.1969 14.1973V9.74977H75.4469V13.6798C75.4469 14.4973 75.8669 14.9323 76.5644 14.9323C76.7279 14.9326 76.8899 14.898 77.0391 14.8307C77.1876 14.7634 77.3211 14.665 77.4291 14.5422C77.5364 14.4193 77.6174 14.2747 77.6646 14.1183C77.7119 13.9618 77.7261 13.7969 77.7044 13.6348V9.74977H79.9544L79.9244 16.6348ZM81.0119 9.74977H83.1869V11.0773H83.2319C83.3511 10.6524 83.6084 10.279 83.9624 10.0158C84.3164 9.75255 84.7484 9.6141 85.1894 9.62227C85.6386 9.58635 86.0841 9.72067 86.4389 9.99862C86.7929 10.2766 87.0299 10.6777 87.1019 11.1223H87.1469C87.2826 10.6729 87.5646 10.2817 87.9479 10.0102C88.3304 9.7386 88.7931 9.6021 89.2619 9.62227C89.5679 9.612 89.8724 9.66622 90.1559 9.78142C90.4401 9.89655 90.6959 10.0702 90.9081 10.2908C91.1204 10.5115 91.2839 10.7744 91.3881 11.0623C91.4916 11.3503 91.5344 11.6569 91.5119 11.9623V16.6498H89.2619V12.5623C89.2619 11.8123 88.9244 11.4673 88.2944 11.4673C88.1541 11.4661 88.0146 11.495 87.8864 11.5522C87.7581 11.6093 87.6434 11.6933 87.5504 11.7985C87.4574 11.9038 87.3876 12.0277 87.3464 12.162C87.3051 12.2964 87.2939 12.438 87.3119 12.5773V16.6498H85.1744V12.5323C85.1744 11.8423 84.8369 11.4673 84.2219 11.4673C84.0801 11.4673 83.9391 11.4975 83.8101 11.5558C83.6804 11.6141 83.5641 11.6992 83.4704 11.8055C83.3759 11.9118 83.3054 12.0369 83.2626 12.1726C83.2206 12.3082 83.2071 12.4512 83.2244 12.5923V16.6498H80.9744L81.0119 9.74977Z" fill="#FEFAEE"/>
<path d="M21.9417 7.96516C21.5601 7.09243 21.0549 6.27911 20.4417 5.55016C19.5354 4.44042 18.4042 3.53521 17.1228 2.89411C15.8413 2.25303 14.4386 1.89059 13.007 1.83066C11.5754 1.77073 10.1473 2.01466 8.81674 2.54641C7.48621 3.07815 6.28336 3.88565 5.28739 4.91576C4.2914 5.94586 3.52486 7.17523 3.03823 8.52294C2.55159 9.87061 2.35588 11.3061 2.46398 12.7349C2.57209 14.1637 2.98156 15.5534 3.66544 16.8125C4.34932 18.0716 5.2921 19.1717 6.43174 20.0402C7.16299 20.6086 7.97101 21.0707 8.83174 21.4127C10.0385 21.9072 11.3301 22.1619 12.6342 22.1627C15.3263 22.1567 17.9061 21.0836 19.8084 19.1786C21.7105 17.2736 22.7798 14.6922 22.7817 12.0002C22.7837 10.6115 22.4977 9.23761 21.9417 7.96516ZM12.6267 3.89266C13.7979 3.89254 14.955 4.14851 16.0167 4.64266C15.7578 4.75453 15.4856 4.83268 15.2067 4.87516C14.2892 5.00798 13.4392 5.43397 12.7836 6.08954C12.1281 6.74511 11.7021 7.59511 11.5692 8.51266C11.511 9.02724 11.2769 9.50596 10.9066 9.86806C10.5363 10.2302 10.0525 10.4534 9.53674 10.5002C8.61919 10.633 7.76919 11.059 7.11362 11.7146C6.45805 12.3701 6.03206 13.2201 5.89924 14.1377C5.85427 14.627 5.64551 15.0868 5.30674 15.4427C4.72223 14.2076 4.45966 12.8447 4.54345 11.4809C4.62724 10.1171 5.05467 8.79669 5.78597 7.64244C6.51727 6.48826 7.52867 5.5378 8.72606 4.87954C9.92344 4.22129 11.2679 3.87664 12.6342 3.87766L12.6267 3.89266ZM6.42424 17.2502C6.51424 17.1677 6.60424 17.0927 6.69424 17.0027C7.36148 16.3558 7.78978 15.5018 7.90924 14.5802C7.95768 14.0621 8.18899 13.5782 8.56174 13.2152C8.92046 12.8418 9.40324 12.6124 9.91924 12.5702C10.8368 12.4373 11.6868 12.0113 12.3423 11.3558C12.9979 10.7002 13.4239 9.85021 13.5567 8.93266C13.5892 8.39079 13.8217 7.88026 14.2092 7.50016C14.5768 7.13405 15.0642 6.91299 15.5817 6.87766C16.4247 6.76168 17.2108 6.38695 17.8317 5.80516C18.5388 6.39172 19.1377 7.09733 19.6017 7.89016C19.5732 7.92864 19.5405 7.96389 19.5042 7.99516C19.1463 8.37181 18.6641 8.60626 18.1467 8.65516C17.2282 8.78566 16.377 9.21091 15.7209 9.86686C15.065 10.5229 14.6397 11.3741 14.5092 12.2927C14.4564 12.809 14.2266 13.2911 13.859 13.6574C13.4913 14.0238 13.0083 14.2517 12.4917 14.3027C11.5715 14.4344 10.7184 14.8596 10.059 15.5149C9.39964 16.1702 8.96921 17.0207 8.83174 17.9402C8.79139 18.3067 8.66546 18.6587 8.46424 18.9677C7.69474 18.5108 7.00556 17.9306 6.42424 17.2502ZM12.6267 20.1452C11.8657 20.146 11.1083 20.0399 10.3767 19.8302C10.627 19.3637 10.7897 18.8552 10.8567 18.3302C10.9093 17.815 11.138 17.3337 11.5041 16.9676C11.8703 16.6014 12.3516 16.3727 12.8667 16.3202C13.7856 16.1888 14.6373 15.7635 15.2944 15.1078C15.9514 14.4521 16.3785 13.6013 16.5117 12.6827C16.5643 12.1675 16.793 11.6862 17.1591 11.3201C17.5253 10.9539 18.0066 10.7252 18.5217 10.6727C19.2132 10.5827 19.8723 10.3253 20.4417 9.92266C20.7579 11.1211 20.7954 12.376 20.5512 13.5911C20.3071 14.8063 19.7878 15.9494 19.0333 16.9328C18.2788 17.916 17.3091 18.7135 16.1985 19.2638C15.088 19.8142 13.8662 20.1029 12.6267 20.1077V20.1452Z" fill="#FEFAEE"/>
</svg>

<svg xmlns="http://www.w3.org/2000/svg" width="94" height="24" fill="none" viewBox="0 0 94 24"><path fill="#fefaee" d="M28.234 7.552h2.25v9.098h-2.25zm3.143 5.663c0-2.25 1.38-3.593 3.51-3.593s3.51 1.343 3.51 3.593-1.35 3.6-3.51 3.6-3.51-1.313-3.51-3.6m4.762 0c0-1.238-.487-1.965-1.252-1.965s-1.245.75-1.245 1.965.472 1.95 1.245 1.95c.772 0 1.252-.69 1.252-1.943zm3.105 3.877h2.16a1.16 1.16 0 0 0 1.215.675c.855 0 1.305-.465 1.305-1.14v-1.26h-.045a2.13 2.13 0 0 1-2.047 1.23c-1.643 0-2.73-1.252-2.73-3.405s1.035-3.51 2.76-3.51a2.15 2.15 0 0 1 2.07 1.32V9.75h2.25v6.825c0 1.642-1.448 2.662-3.585 2.662-1.988 0-3.225-.892-3.353-2.137zm4.688-3.885c0-1.095-.503-1.785-1.298-1.785s-1.282.683-1.282 1.785c0 1.103.48 1.725 1.282 1.725.803 0 1.298-.607 1.298-1.717zm3.097 0c0-2.25 1.38-3.592 3.51-3.592s3.518 1.342 3.518 3.592-1.35 3.6-3.518 3.6-3.51-1.305-3.51-3.592zm4.763 0c0-1.237-.488-1.965-1.253-1.965s-1.207.758-1.207 1.98c0 1.223.472 1.95 1.237 1.95s1.223-.697 1.223-1.95zm3.12-5.092a1.148 1.148 0 1 1 1.17 1.117 1.095 1.095 0 0 1-1.17-1.102zm0 1.65h2.25v6.885h-2.25zm10.417 3.442c0 2.25-.997 3.533-2.707 3.533a2.145 2.145 0 0 1-2.1-1.275h-.045v3.39h-2.25V9.75h2.25v1.23h.045a2.15 2.15 0 0 1 2.085-1.328c1.725.03 2.752 1.32 2.752 3.57zm-2.25 0c0-1.095-.502-1.792-1.29-1.792-.787 0-1.29.705-1.297 1.792-.008 1.088.51 1.785 1.297 1.785.788 0 1.29-.682 1.29-1.77zm6.113-3.6c1.867 0 3 .885 3.052 2.303h-2.047c0-.488-.405-.795-1.028-.795-.622 0-.9.24-.9.592 0 .353.248.465.75.57l1.44.293c1.373.292 1.958.847 1.958 1.89 0 1.425-1.298 2.34-3.21 2.34-1.913 0-3.165-.915-3.263-2.318h2.168c.067.51.472.81 1.132.81s.96-.217.96-.577-.21-.435-.75-.548l-1.297-.277c-1.343-.278-2.048-.99-2.048-2.04.015-1.35 1.223-2.228 3.083-2.228zm10.732 7.028h-2.167v-1.283h-.045a1.96 1.96 0 0 1-1.995 1.433 2.393 2.393 0 0 1-2.52-2.588V9.75h2.25v3.93c0 .817.42 1.252 1.117 1.252a1.15 1.15 0 0 0 1.14-1.297V9.75h2.25zm1.088-6.885h2.175v1.327h.045a1.995 1.995 0 0 1 1.957-1.455 1.793 1.793 0 0 1 1.913 1.5h.045a2.11 2.11 0 0 1 2.115-1.5 2.18 2.18 0 0 1 2.126 1.44c.104.288.146.595.124.9v4.688h-2.25v-4.088c0-.75-.338-1.095-.968-1.095a.982.982 0 0 0-.982 1.11v4.073h-2.138v-4.118c0-.69-.337-1.065-.952-1.065a1 1 0 0 0-.96.706 1 1 0 0 0-.038.42v4.057h-2.25zM21.942 7.965a10 10 0 0 0-1.5-2.415 10.147 10.147 0 1 0-14.01 14.49 9.8 9.8 0 0 0 2.4 1.373c1.207.494 2.498.749 3.802.75A10.17 10.17 0 0 0 22.782 12a10 10 0 0 0-.84-4.035m-9.315-4.072c1.17 0 2.328.256 3.39.75q-.39.169-.81.232a4.3 4.3 0 0 0-3.638 3.638A2.25 2.25 0 0 1 9.537 10.5a4.3 4.3 0 0 0-3.638 3.638c-.045.489-.253.949-.592 1.305a8.1 8.1 0 0 1 7.327-11.565zM6.424 17.25c.09-.082.18-.157.27-.247A4.1 4.1 0 0 0 7.91 14.58a2.2 2.2 0 0 1 .653-1.365 2.12 2.12 0 0 1 1.357-.645 4.3 4.3 0 0 0 3.638-3.637 2.2 2.2 0 0 1 .652-1.433 2.15 2.15 0 0 1 1.373-.622 4.1 4.1 0 0 0 2.25-1.073 7.9 7.9 0 0 1 1.77 2.085.7.7 0 0 1-.098.105c-.358.377-.84.611-1.357.66a4.28 4.28 0 0 0-3.638 3.638 2.25 2.25 0 0 1-2.017 2.01 4.32 4.32 0 0 0-3.66 3.637c-.04.367-.167.719-.368 1.028a8.2 8.2 0 0 1-2.04-1.718m6.203 2.895a8.1 8.1 0 0 1-2.25-.315c.25-.466.413-.975.48-1.5a2.25 2.25 0 0 1 2.01-2.01 4.3 4.3 0 0 0 3.645-3.637 2.25 2.25 0 0 1 2.01-2.01 4.3 4.3 0 0 0 1.92-.75 8.113 8.113 0 0 1-7.815 10.185z"/></svg>
